!! 00000] TT[00
!! NN
!!!OTL: Wanyue yiyang de liandao
!!!ARE: Xinjiang, Aletai
!! Ethnic Group: Tataer
!! IV, 544
!!!SCT: C0437
!!!YEM: Copyright 1995, estate of Helmut Schaffrath.
**kern
*ICvox
*Ivox
*M2/4
*k[b-]
*F:
{8dd
8dd
16dd
16cc
16dd
16ee
=1
4ff
16ee
16dd
16ee
16gg
=2
4dd
16dd
16cc
16dd
16ff
=3
16ff
16dd
16cc
16a
4a}
=4
{8cc
8cc
16cc
16a
16a
16cc
=5
16dd
16cc
16dd
16ff
16ff
16dd
16cc
16a
=6
8.a
16g
16a
16cc
16dd
16cc
=7
2a}
=8
{8f
8f
16f
16g
16a
16cc
=9
8cc
16cc
16dd
16dd
16cc
16a
16cc
=10
8.g
16a
16a
16g
16f
16g
=11
16f
8.d
4d}
=12
{8f
8f
16f
16g
16a
16cc
=13
8cc
16cc
16ff
16dd
16cc
8a
=14
16g
16f
16g
16a
16a
16g
16f
16d
=15
2d}
==
!!!AGN: Shuqing gequ.  Zanmei qingnian xiaohuozi
!! Insbesondere der Anfang aehnelt persisch - arabischem Stil. Die
!!    Minderheit, die es auch in der UDSSR gibt (Tataren) ist nicht
!!    sehr zahlreich in China.
!!!ONB: ESAC (Essen Associative Code) Database: CHINA
!!!AMT: simple duple
!!!AIN: vox
!!!EED: Helmut Schaffrath
!!!EEV: 1.0
*-
